src/catppuccin-latte-yellow-cursors/wait-03.svg

<?xml version="1.0" encoding="UTF-8" standalone="no"?>
<svg
   id="svg5327"
   width="32"
   height="32"
   version="1.1"
   sodipodi:docname="wait-03.svg"
   inkscape:version="1.1.2 (0a00cf5339, 2022-02-04)"
   xmlns:inkscape="http://www.inkscape.org/namespaces/inkscape"
   xmlns:sodipodi="http://sodipodi.sourceforge.net/DTD/sodipodi-0.dtd"
   xmlns:xlink="http://www.w3.org/1999/xlink"
   xmlns="http://www.w3.org/2000/svg"
   xmlns:svg="http://www.w3.org/2000/svg">
  <sodipodi:namedview
     id="namedview37485"
     pagecolor="#ffffff"
     bordercolor="#666666"
     borderopacity="1.0"
     inkscape:pageshadow="2"
     inkscape:pageopacity="0.0"
     inkscape:pagecheckerboard="0"
     showgrid="false"
     inkscape:zoom="25.96875"
     inkscape:cx="16.019254"
     inkscape:cy="16.019254"
     inkscape:window-width="1896"
     inkscape:window-height="1020"
     inkscape:window-x="9"
     inkscape:window-y="45"
     inkscape:window-maximized="1"
     inkscape:current-layer="svg5327" />
  <defs
     id="defs5329">
    <filter
       id="filter837"
       style="color-interpolation-filters:sRGB"
       width="1.12"
       height="1.12"
       x="-.06"
       y="-.06">
      <feGaussianBlur
         id="feGaussianBlur839"
         stdDeviation=".55" />
    </filter>
    <filter
       id="filter839"
       style="color-interpolation-filters:sRGB"
       width="1.126"
       height="1.114"
       x="-.06"
       y="-.06">
      <feGaussianBlur
         id="feGaussianBlur841"
         stdDeviation=".38" />
    </filter>
    <linearGradient
       id="linearGradient832"
       x1="21"
       x2="25"
       y1="16"
       y2="28"
       gradientTransform="matrix(1.5384616,0,0,1.5384616,-18.615384,-18.615386)"
       gradientUnits="userSpaceOnUse"
       xlink:href="#linearGradient830" />
    <linearGradient
       id="linearGradient830">
      <stop
         id="stop826"
         style="stop-color:#ffffff;stop-opacity:1"
         offset="0" />
      <stop
         id="stop828"
         style="stop-color:#ffffff;stop-opacity:0"
         offset="1" />
    </linearGradient>
    <filter
       id="filter831"
       style="color-interpolation-filters:sRGB"
       width="1.1517499"
       height="1.1372881"
       x="-0.075874928"
       y="-0.068644048">
      <feGaussianBlur
         id="feGaussianBlur833"
         stdDeviation=".457" />
    </filter>
    <filter
       id="filter835"
       style="color-interpolation-filters:sRGB"
       width="1.144"
       height="1.144"
       x="-0.072000003"
       y="-0.072000003">
      <feGaussianBlur
         id="feGaussianBlur837"
         stdDeviation=".66" />
    </filter>
  </defs>
  <circle
     id="circle819"
     style="opacity:0.2;fill:#000000;fill-opacity:1;stroke:none;stroke-width:2.19999981;stroke-linecap:round;stroke-linejoin:round;stroke-miterlimit:4;stroke-dasharray:none;stroke-opacity:1;filter:url(#filter835)"
     cx="16.5"
     cy="16.5"
     r="11" />
  <circle
     id="path818"
     style="opacity:1;fill:#EFF1F5;fill-opacity:1;stroke:none;stroke-width:2.19999981;stroke-linecap:round;stroke-linejoin:round;stroke-miterlimit:4;stroke-dasharray:none;stroke-opacity:1"
     cx="16"
     cy="16"
     r="11" />
  <circle
     id="circle824"
     style="opacity:1;fill:#DF8E1D;fill-opacity:1;stroke:none;stroke-width:1.99999988;stroke-linecap:round;stroke-linejoin:round;stroke-miterlimit:4;stroke-dasharray:none;stroke-opacity:1"
     cx="16"
     cy="16"
     r="10" />
  <path
     id="path824"
     style="opacity:0.2;fill:#DF8E1D;fill-opacity:1;stroke:none;stroke-width:3.63636;stroke-linecap:round;stroke-linejoin:round;stroke-miterlimit:4;stroke-dasharray:none;stroke-opacity:1"
     d="M 26,16 A 10,10 0 0 1 16,26 10,10 0 0 1 6,16 10,10 0 0 1 16,5.9999999 10,10 0 0 1 26,16 Z" />
  <path
     id="path821"
     style="color:#000000;font-style:normal;font-variant:normal;font-weight:normal;font-stretch:normal;font-size:medium;line-height:normal;font-family:sans-serif;font-variant-ligatures:normal;font-variant-position:normal;font-variant-caps:normal;font-variant-numeric:normal;font-variant-alternates:normal;font-feature-settings:normal;text-indent:0;text-align:start;text-decoration:none;text-decoration-line:none;text-decoration-style:solid;text-decoration-color:#000000;letter-spacing:normal;word-spacing:normal;text-transform:none;writing-mode:lr-tb;direction:ltr;text-orientation:mixed;dominant-baseline:auto;baseline-shift:baseline;text-anchor:start;white-space:normal;shape-padding:0;clip-rule:nonzero;display:inline;overflow:visible;visibility:visible;opacity:0.2;isolation:auto;mix-blend-mode:normal;color-interpolation:sRGB;color-interpolation-filters:linearRGB;solid-color:#000000;solid-opacity:1;vector-effect:none;fill:#000000;fill-opacity:1;fill-rule:nonzero;stroke:none;stroke-width:1.0006907;stroke-linecap:round;stroke-linejoin:round;stroke-miterlimit:4;stroke-dasharray:none;stroke-dashoffset:0;stroke-opacity:1;color-rendering:auto;image-rendering:auto;shape-rendering:auto;text-rendering:auto;enable-background:accumulate;filter:url(#filter831)"
     d="m 16.626779,8.5121173 c -0.74257,-0.012726 -1.488932,0.076036 -2.21875,0.2714843 -2.224208,0.5956503 -4.075612,2.1144434 -5.078125,4.1738274 a 0.50330224,0.49792399 30 1 0 0.904297,0.441407 c 0.877433,-1.802439 2.492754,-3.132965 4.439453,-3.6542969 1.946697,-0.5213324 4.034346,-0.180682 5.726563,0.9335929 A 0.50373335,0.4983505 30 1 0 20.949045,9.8461016 C 20.707365,9.6869615 20.459467,9.5437852 20.204904,9.4125079 19.091189,8.8381728 17.864396,8.5333277 16.626779,8.5121173 Z m 0.1875,2.9843747 c -0.975867,-0.05993 -1.95068,0.168669 -2.798828,0.664062 -0.161551,0.09436 -0.317265,0.199059 -0.46875,0.3125 a 0.4979601,0.49593692 60 1 0 0.59375,0.796875 c 0.970052,-0.72642 2.221168,-0.964916 3.394531,-0.652343 1.173363,0.312571 2.139345,1.141133 2.626953,2.255859 a 0.49808729,0.49606359 60 1 0 0.908203,-0.396485 c -0.609176,-1.392635 -1.817318,-2.433721 -3.283203,-2.824218 -0.320662,-0.08542 -0.647367,-0.136272 -0.972656,-0.15625 z m -4.462891,6.310547 a 0.50007549,0.49606359 60 0 0 -0.234374,0.07031 0.50007549,0.49606359 60 0 0 -0.197266,0.626953 c 0.612188,1.397853 1.822994,2.443691 3.291016,2.837891 1.468022,0.394198 3.032608,0.09368 4.24414,-0.814453 a 0.49994779,0.49593692 60 1 0 -0.597656,-0.800782 c -0.969765,0.726918 -2.221409,0.965927 -3.396484,0.650391 -1.175075,-0.315536 -2.142793,-1.150625 -2.632813,-2.269531 a 0.50007549,0.49606359 60 0 0 -0.476563,-0.300781 z m 10.886719,1.498047 a 0.50329883,0.49890424 30 0 0 -0.46289,0.28125 c -0.879402,1.805848 -2.499175,3.140295 -4.447266,3.664062 -1.948092,0.523767 -4.034474,0.184785 -5.726563,-0.929688 a 0.50328986,0.49889536 30 1 0 -0.548828,0.832032 c 1.933301,1.273344 4.317169,1.65898 6.542969,1.060547 2.225801,-0.598432 4.079222,-2.122269 5.083985,-4.185547 a 0.50329883,0.49890424 30 0 0 -0.201172,-0.654297 0.50329883,0.49890424 30 0 0 -0.240235,-0.06836 z" />
  <path
     id="path847"
     style="color:#000000;font-style:normal;font-variant:normal;font-weight:normal;font-stretch:normal;font-size:medium;line-height:normal;font-family:sans-serif;font-variant-ligatures:normal;font-variant-position:normal;font-variant-caps:normal;font-variant-numeric:normal;font-variant-alternates:normal;font-feature-settings:normal;text-indent:0;text-align:start;text-decoration:none;text-decoration-line:none;text-decoration-style:solid;text-decoration-color:#000000;letter-spacing:normal;word-spacing:normal;text-transform:none;writing-mode:lr-tb;direction:ltr;text-orientation:mixed;dominant-baseline:auto;baseline-shift:baseline;text-anchor:start;white-space:normal;shape-padding:0;clip-rule:nonzero;display:inline;overflow:visible;visibility:visible;opacity:1;isolation:auto;mix-blend-mode:normal;color-interpolation:sRGB;color-interpolation-filters:linearRGB;solid-color:#000000;solid-opacity:1;vector-effect:none;fill:#EFF1F5;fill-opacity:1;fill-rule:nonzero;stroke:none;stroke-width:1.0006907;stroke-linecap:round;stroke-linejoin:round;stroke-miterlimit:4;stroke-dasharray:none;stroke-dashoffset:0;stroke-opacity:1;color-rendering:auto;image-rendering:auto;shape-rendering:auto;text-rendering:auto;enable-background:accumulate"
     d="M 16.126953 8.0117188 C 15.384383 7.9989925 14.638021 8.0877551 13.908203 8.2832031 C 11.683995 8.8788534 9.8325912 10.397647 8.8300781 12.457031 A 0.50330224 0.49792399 30 1 0 9.734375 12.898438 C 10.611808 11.095999 12.227129 9.7654732 14.173828 9.2441406 C 16.120525 8.7228082 18.208174 9.0634586 19.900391 10.177734 A 0.50329313 0.49791498 30 1 0 20.449219 9.3457031 C 20.207539 9.186563 19.959641 9.0433867 19.705078 8.9121094 C 18.591363 8.3377743 17.36457 8.0329292 16.126953 8.0117188 z M 16.314453 10.996094 C 15.338586 10.936159 14.363773 11.164763 13.515625 11.660156 C 13.354074 11.754516 13.19836 11.859215 13.046875 11.972656 A 0.4979601 0.49593692 60 1 0 13.640625 12.769531 C 14.610677 12.043111 15.861793 11.804615 17.035156 12.117188 C 18.208519 12.429759 19.174501 13.258321 19.662109 14.373047 A 0.49808729 0.49606359 60 1 0 20.570312 13.976562 C 19.961136 12.583927 18.752994 11.542841 17.287109 11.152344 C 16.966447 11.066923 16.639742 11.016072 16.314453 10.996094 z M 11.851562 17.306641 A 0.50007549 0.49606359 60 0 0 11.617188 17.376953 A 0.50007549 0.49606359 60 0 0 11.419922 18.003906 C 12.03211 19.401759 13.242916 20.447597 14.710938 20.841797 C 16.17896 21.235995 17.743546 20.935477 18.955078 20.027344 A 0.49994779 0.49593692 60 1 0 18.357422 19.226562 C 17.387657 19.95348 16.136013 20.192489 14.960938 19.876953 C 13.785863 19.561417 12.818145 18.726328 12.328125 17.607422 A 0.50007549 0.49606359 60 0 0 11.851562 17.306641 z M 22.738281 18.804688 A 0.50329883 0.49890424 30 0 0 22.275391 19.085938 C 21.395989 20.891786 19.776216 22.226233 17.828125 22.75 C 15.880033 23.273767 13.793651 22.934785 12.101562 21.820312 A 0.50328986 0.49889536 30 1 0 11.552734 22.652344 C 13.486035 23.925688 15.869903 24.311324 18.095703 23.712891 C 20.321504 23.114459 22.174925 21.590622 23.179688 19.527344 A 0.50329883 0.49890424 30 0 0 22.978516 18.873047 A 0.50329883 0.49890424 30 0 0 22.738281 18.804688 z" />
</svg>

<svg xmlns="http://www.w3.org/2000/svg" width="32" height="32">
    <defs>
        <filter id="b" width="1.152" height="1.137" x="-.076" y="-.069" style="color-interpolation-filters:sRGB">
            <feGaussianBlur stdDeviation=".457"/>
        </filter>
        <filter id="a" width="1.144" height="1.144" x="-.072" y="-.072" style="color-interpolation-filters:sRGB">
            <feGaussianBlur stdDeviation=".66"/>
        </filter>
    </defs>
    <circle cx="16.5" cy="16.5" r="11" style="opacity:.2;fill:#000;fill-opacity:1;stroke:none;stroke-width:2.19999981;stroke-linecap:round;stroke-linejoin:round;stroke-miterlimit:4;stroke-dasharray:none;stroke-opacity:1;filter:url(#a)"/>
    <circle cx="16" cy="16" r="11" style="opacity:1;fill:#eff1f5;fill-opacity:1;stroke:none;stroke-width:2.19999981;stroke-linecap:round;stroke-linejoin:round;stroke-miterlimit:4;stroke-dasharray:none;stroke-opacity:1"/>
    <circle cx="16" cy="16" r="10" style="opacity:1;fill:#df8e1d;fill-opacity:1;stroke:none;stroke-width:1.99999988;stroke-linecap:round;stroke-linejoin:round;stroke-miterlimit:4;stroke-dasharray:none;stroke-opacity:1"/>
    <path d="M26 16a10 10 0 0 1-10 10A10 10 0 0 1 6 16 10 10 0 0 1 16 6a10 10 0 0 1 10 10" style="opacity:.2;fill:#df8e1d;fill-opacity:1;stroke:none;stroke-width:3.63636;stroke-linecap:round;stroke-linejoin:round;stroke-miterlimit:4;stroke-dasharray:none;stroke-opacity:1"/>
    <path d="M16.627 8.512a8 8 0 0 0-2.219.272 7.9 7.9 0 0 0-5.078 4.173.503.498 30 1 0 .904.442 6.92 6.92 0 0 1 4.44-3.654 7.1 7.1 0 0 1 5.726.933.504.498 30 1 0 .549-.832 8.1 8.1 0 0 0-4.322-1.334m.187 2.984a4.95 4.95 0 0 0-3.267.977.498.496 60 1 0 .593.797 3.96 3.96 0 0 1 3.395-.652 3.99 3.99 0 0 1 2.627 2.255.498.496 60 1 0 .908-.396 4.99 4.99 0 0 0-3.283-2.824 5 5 0 0 0-.973-.157m-4.463 6.311a.5.496 60 0 0-.234.07.5.496 60 0 0-.197.627 5.02 5.02 0 0 0 3.29 2.838 4.94 4.94 0 0 0 4.245-.814.5.496 60 1 0-.598-.801 3.95 3.95 0 0 1-3.396.65 4.01 4.01 0 0 1-2.633-2.27.5.496 60 0 0-.477-.3m10.887 1.498a.503.499 30 0 0-.463.281 6.94 6.94 0 0 1-4.447 3.664 7.08 7.08 0 0 1-5.727-.93.503.499 30 1 0-.548.833 8.1 8.1 0 0 0 6.543 1.06 7.94 7.94 0 0 0 5.084-4.185.503.499 30 0 0-.202-.655.503.499 30 0 0-.24-.068" style="color:#000;font-style:normal;font-variant:normal;font-weight:400;font-stretch:normal;font-size:medium;line-height:normal;font-family:sans-serif;font-variant-ligatures:normal;font-variant-position:normal;font-variant-caps:normal;font-variant-numeric:normal;font-variant-alternates:normal;font-feature-settings:normal;text-indent:0;text-align:start;text-decoration:none;text-decoration-line:none;text-decoration-style:solid;text-decoration-color:#000;letter-spacing:normal;word-spacing:normal;text-transform:none;writing-mode:lr-tb;direction:ltr;text-orientation:mixed;dominant-baseline:auto;baseline-shift:baseline;text-anchor:start;white-space:normal;shape-padding:0;clip-rule:nonzero;display:inline;overflow:visible;visibility:visible;opacity:.2;isolation:auto;mix-blend-mode:normal;color-interpolation:sRGB;color-interpolation-filters:linearRGB;solid-color:#000;solid-opacity:1;vector-effect:none;fill:#000;fill-opacity:1;fill-rule:nonzero;stroke:none;stroke-width:1.0006907;stroke-linecap:round;stroke-linejoin:round;stroke-miterlimit:4;stroke-dasharray:none;stroke-dashoffset:0;stroke-opacity:1;color-rendering:auto;image-rendering:auto;shape-rendering:auto;text-rendering:auto;enable-background:accumulate;filter:url(#b)"/>
    <path d="M16.127 8.012a8 8 0 0 0-2.219.271 7.9 7.9 0 0 0-5.078 4.174.503.498 30 1 0 .904.441 6.92 6.92 0 0 1 4.44-3.654 7.1 7.1 0 0 1 5.726.934.503.498 30 1 0 .55-.832 8.1 8.1 0 0 0-4.322-1.334m.187 2.984a4.95 4.95 0 0 0-3.267.977.498.496 60 1 0 .594.797 3.96 3.96 0 0 1 3.394-.653 3.99 3.99 0 0 1 2.627 2.256.498.496 60 1 0 .908-.396 4.99 4.99 0 0 0-3.283-2.825 5 5 0 0 0-.973-.156m-4.462 6.31a.5.496 60 0 0-.235.071.5.496 60 0 0-.197.627 5.02 5.02 0 0 0 3.29 2.838 4.94 4.94 0 0 0 4.245-.815.5.496 60 1 0-.598-.8 3.95 3.95 0 0 1-3.396.65 4.01 4.01 0 0 1-2.633-2.27.5.496 60 0 0-.476-.3m10.886 1.499a.503.499 30 0 0-.463.28 6.94 6.94 0 0 1-4.447 3.665 7.08 7.08 0 0 1-5.726-.93.503.499 30 1 0-.55.832 8.1 8.1 0 0 0 6.544 1.06 7.94 7.94 0 0 0 5.084-4.185.503.499 30 0 0-.201-.654.503.499 30 0 0-.24-.068" style="color:#000;font-style:normal;font-variant:normal;font-weight:400;font-stretch:normal;font-size:medium;line-height:normal;font-family:sans-serif;font-variant-ligatures:normal;font-variant-position:normal;font-variant-caps:normal;font-variant-numeric:normal;font-variant-alternates:normal;font-feature-settings:normal;text-indent:0;text-align:start;text-decoration:none;text-decoration-line:none;text-decoration-style:solid;text-decoration-color:#000;letter-spacing:normal;word-spacing:normal;text-transform:none;writing-mode:lr-tb;direction:ltr;text-orientation:mixed;dominant-baseline:auto;baseline-shift:baseline;text-anchor:start;white-space:normal;shape-padding:0;clip-rule:nonzero;display:inline;overflow:visible;visibility:visible;opacity:1;isolation:auto;mix-blend-mode:normal;color-interpolation:sRGB;color-interpolation-filters:linearRGB;solid-color:#000;solid-opacity:1;vector-effect:none;fill:#eff1f5;fill-opacity:1;fill-rule:nonzero;stroke:none;stroke-width:1.0006907;stroke-linecap:round;stroke-linejoin:round;stroke-miterlimit:4;stroke-dasharray:none;stroke-dashoffset:0;stroke-opacity:1;color-rendering:auto;image-rendering:auto;shape-rendering:auto;text-rendering:auto;enable-background:accumulate"/>
</svg>
